badges/Google_Play.svg

<svg width="136" height="40" viewBox="0 0 136 40" fill="none" xmlns="http://www.w3.org/2000/svg">
<g clip-path="url(#clip0_16:379)">
<path fill-rule="evenodd" clip-rule="evenodd" d="M130.468 40H5.49077C2.72269 40 0.468323 37.7456 0.468323 35V5C0.468323 2.24439 2.72269 0 5.49077 0H130.468C133.234 0 135.491 2.24439 135.491 5V35C135.491 37.7456 133.234 40 130.468 40Z" fill="black"/>
<path fill-rule="evenodd" clip-rule="evenodd" d="M130.468 0.800499C132.79 0.800499 134.69 2.68828 134.69 5V35C134.69 37.3117 132.802 39.1995 130.468 39.1995H5.49077C3.16907 39.1995 1.26882 37.3117 1.26882 35V5C1.26882 2.68828 3.1566 0.800499 5.49077 0.800499H130.468ZM130.468 0H5.49077C2.72269 0 0.468323 2.25436 0.468323 5V35C0.468323 37.7556 2.72269 40 5.49077 40H130.468C133.234 40 135.491 37.7556 135.491 35V5C135.491 2.25436 133.234 0 130.468 0Z" fill="#A6A6A6"/>
<path d="M68.6043 21.752C66.2523 21.752 64.3353 23.54 64.3353 26.005C64.3353 28.454 66.2523 30.258 68.6043 30.258C70.9563 30.258 72.8733 28.454 72.8733 26.005C72.8733 23.54 70.9563 21.752 68.6043 21.752ZM68.6043 28.583C67.3153 28.583 66.2033 27.52 66.2033 26.005C66.2033 24.474 67.3153 23.427 68.6043 23.427C69.8933 23.427 71.0043 24.474 71.0043 26.005C71.0043 27.519 69.8933 28.583 68.6043 28.583ZM59.2903 21.752C56.9383 21.752 55.0213 23.54 55.0213 26.005C55.0213 28.454 56.9383 30.258 59.2903 30.258C61.6423 30.258 63.5593 28.454 63.5593 26.005C63.5603 23.54 61.6423 21.752 59.2903 21.752ZM59.2903 28.583C58.0013 28.583 56.8903 27.52 56.8903 26.005C56.8903 24.474 58.0023 23.427 59.2903 23.427C60.5793 23.427 61.6903 24.474 61.6903 26.005C61.6913 27.519 60.5793 28.583 59.2903 28.583ZM48.2123 23.057V24.861H52.5303C52.4013 25.876 52.0633 26.617 51.5473 27.133C50.9193 27.761 49.9363 28.454 48.2123 28.454C45.5543 28.454 43.4763 26.311 43.4763 23.653C43.4763 20.995 45.5543 18.852 48.2123 18.852C49.6463 18.852 50.6933 19.416 51.4663 20.141L52.7393 18.868C51.6603 17.837 50.2263 17.047 48.2123 17.047C44.5713 17.047 41.5103 20.011 41.5103 23.652C41.5103 27.293 44.5713 30.257 48.2123 30.257C50.1773 30.257 51.6603 29.613 52.8203 28.404C54.0123 27.212 54.3833 25.536 54.3833 24.183C54.3833 23.764 54.3513 23.377 54.2863 23.055H48.2123V23.057ZM93.5203 24.458C93.1663 23.507 92.0863 21.751 89.8793 21.751C87.6883 21.751 85.8683 23.475 85.8683 26.004C85.8683 28.388 87.6723 30.257 90.0893 30.257C92.0383 30.257 93.1663 29.065 93.6333 28.372L92.1833 27.405C91.7003 28.114 91.0393 28.581 90.0893 28.581C89.1383 28.581 88.4623 28.146 88.0273 27.292L93.7143 24.94L93.5203 24.458ZM87.7203 25.876C87.6723 24.233 88.9933 23.395 89.9433 23.395C90.6843 23.395 91.3123 23.765 91.5223 24.297L87.7203 25.876ZM83.0963 30H84.9653V17.499H83.0963V30ZM80.0353 22.702H79.9713C79.5523 22.203 78.7473 21.751 77.7323 21.751C75.6053 21.751 73.6563 23.62 73.6563 26.02C73.6563 28.404 75.6053 30.257 77.7323 30.257C78.7473 30.257 79.5523 29.806 79.9713 29.29H80.0353V29.902C80.0353 31.529 79.1653 32.399 77.7633 32.399C76.6193 32.399 75.9103 31.577 75.6203 30.885L73.9933 31.562C74.4603 32.69 75.7013 34.075 77.7633 34.075C79.9543 34.075 81.8073 32.786 81.8073 29.645V22.009H80.0353V22.702V22.702ZM77.8933 28.583C76.6043 28.583 75.5253 27.504 75.5253 26.021C75.5253 24.523 76.6043 23.427 77.8933 23.427C79.1663 23.427 80.1643 24.522 80.1643 26.021C80.1643 27.503 79.1663 28.583 77.8933 28.583ZM102.274 17.499H97.8033V30H99.6683V25.264H102.273C104.341 25.264 106.374 23.767 106.374 21.382C106.374 18.997 104.342 17.499 102.274 17.499ZM102.322 23.524H99.6683V19.239H102.322C103.717 19.239 104.509 20.394 104.509 21.382C104.509 22.35 103.717 23.524 102.322 23.524ZM113.854 21.729C112.503 21.729 111.104 22.324 110.525 23.643L112.182 24.335C112.536 23.643 113.195 23.418 113.887 23.418C114.852 23.418 115.833 23.997 115.849 25.026V25.155C115.511 24.962 114.787 24.672 113.903 24.672C112.118 24.672 110.3 25.653 110.3 27.487C110.3 29.16 111.764 30.237 113.404 30.237C114.659 30.237 115.35 29.674 115.784 29.015H115.848V29.98H117.649V25.187C117.649 22.967 115.993 21.729 113.854 21.729ZM113.628 28.58C113.017 28.58 112.164 28.274 112.164 27.519C112.164 26.554 113.226 26.184 114.142 26.184C114.962 26.184 115.348 26.361 115.847 26.602C115.703 27.76 114.706 28.58 113.628 28.58ZM124.211 22.002L122.072 27.422H122.008L119.789 22.002H117.779L121.108 29.577L119.21 33.791H121.156L126.287 22.002H124.211V22.002ZM107.404 30H109.27V17.499H107.404V30Z" fill="white"/>
<path fill-rule="evenodd" clip-rule="evenodd" d="M74.0773 12.224C73.4873 12.831 72.7543 13.133 71.8773 13.133C71.0003 13.133 70.2673 12.83 69.6783 12.224C69.0883 11.618 68.7943 10.876 68.7943 9.999C68.7943 9.122 69.0883 8.38 69.6783 7.774C70.2673 7.167 71.0003 6.864 71.8773 6.864C72.7493 6.864 73.4813 7.169 74.0733 7.778C74.6653 8.387 74.9613 9.127 74.9613 9.999C74.9613 10.877 74.6663 11.619 74.0773 12.224ZM70.2473 11.722C70.6913 12.172 71.2343 12.396 71.8773 12.396C72.5203 12.396 73.0633 12.171 73.5073 11.722C73.9513 11.272 74.1743 10.698 74.1743 10C74.1743 9.302 73.9513 8.727 73.5073 8.278C73.0643 7.828 72.5203 7.604 71.8773 7.604C71.2343 7.604 70.6913 7.829 70.2473 8.278C69.8043 8.728 69.5813 9.302 69.5813 10C69.5813 10.698 69.8043 11.272 70.2473 11.722Z" fill="white"/>
<path d="M47.8863 10.243C47.8863 11.081 47.6383 11.748 47.1413 12.246C46.5773 12.838 45.8413 13.134 44.9373 13.134C44.0713 13.134 43.3343 12.834 42.7293 12.234C42.1233 11.633 41.8203 10.889 41.8203 10.001C41.8203 9.112 42.1233 8.368 42.7293 7.768C43.3343 7.167 44.0713 6.867 44.9373 6.867C45.3673 6.867 45.7783 6.951 46.1683 7.118C46.5593 7.286 46.8723 7.509 47.1063 7.788L46.5793 8.316C46.1823 7.841 45.6353 7.604 44.9363 7.604C44.3043 7.604 43.7583 7.826 43.2973 8.27C42.8373 8.714 42.6073 9.29 42.6073 10C42.6073 10.71 42.8373 11.286 43.2983 11.731C43.7593 12.175 44.3053 12.397 44.9373 12.397C45.6073 12.397 46.1663 12.174 46.6133 11.727C46.9033 11.436 47.0713 11.031 47.1163 10.512H44.9373V9.79H47.8443C47.8733 9.947 47.8863 10.098 47.8863 10.243Z" fill="white"/>
<path d="M52.4963 7.737H49.7643V9.639H52.2283V10.36H49.7643V12.262H52.4963V13H48.9933V7H52.4963V7.737Z" fill="white"/>
<path d="M54.9753 13H55.7463V7.737H57.4223V7H53.2993V7.737H54.9753V13Z" fill="white"/>
<path d="M60.4063 13V7H61.1773V13H60.4063Z" fill="white"/>
<path d="M63.8243 13H64.5953V7.737H66.2713V7H62.1483V7.737H63.8243V13Z" fill="white"/>
<path d="M76.0433 7V13H76.8123V9.262L76.7793 8.106H76.8123L79.8633 13H80.6683V7H79.8973V10.512L79.9303 11.668H79.8973L76.9813 7H76.0433Z" fill="white"/>
<path fill-rule="evenodd" clip-rule="evenodd" d="M74.0773 12.224C73.4873 12.831 72.7543 13.133 71.8773 13.133C71.0003 13.133 70.2673 12.83 69.6783 12.224C69.0883 11.618 68.7943 10.876 68.7943 9.999C68.7943 9.122 69.0883 8.38 69.6783 7.774C70.2673 7.167 71.0003 6.864 71.8773 6.864C72.7493 6.864 73.4813 7.169 74.0733 7.778C74.6653 8.387 74.9613 9.127 74.9613 9.999C74.9613 10.877 74.6663 11.619 74.0773 12.224ZM70.2473 11.722C70.6913 12.172 71.2343 12.396 71.8773 12.396C72.5203 12.396 73.0633 12.171 73.5073 11.722C73.9513 11.272 74.1743 10.698 74.1743 10C74.1743 9.302 73.9513 8.727 73.5073 8.278C73.0643 7.828 72.5203 7.604 71.8773 7.604C71.2343 7.604 70.6913 7.829 70.2473 8.278C69.8043 8.728 69.5813 9.302 69.5813 10C69.5813 10.698 69.8043 11.272 70.2473 11.722Z" stroke="white" stroke-width="0.2" stroke-miterlimit="10"/>
<path d="M47.8863 10.243C47.8863 11.081 47.6383 11.748 47.1413 12.246C46.5773 12.838 45.8413 13.134 44.9373 13.134C44.0713 13.134 43.3343 12.834 42.7293 12.234C42.1233 11.633 41.8203 10.889 41.8203 10.001C41.8203 9.112 42.1233 8.368 42.7293 7.768C43.3343 7.167 44.0713 6.867 44.9373 6.867C45.3673 6.867 45.7783 6.951 46.1683 7.118C46.5593 7.286 46.8723 7.509 47.1063 7.788L46.5793 8.316C46.1823 7.841 45.6353 7.604 44.9363 7.604C44.3043 7.604 43.7583 7.826 43.2973 8.27C42.8373 8.714 42.6073 9.29 42.6073 10C42.6073 10.71 42.8373 11.286 43.2983 11.731C43.7593 12.175 44.3053 12.397 44.9373 12.397C45.6073 12.397 46.1663 12.174 46.6133 11.727C46.9033 11.436 47.0713 11.031 47.1163 10.512H44.9373V9.79H47.8443C47.8733 9.947 47.8863 10.098 47.8863 10.243Z" stroke="white" stroke-width="0.2" stroke-miterlimit="10"/>
<path d="M52.4963 7.737H49.7643V9.639H52.2283V10.36H49.7643V12.262H52.4963V13H48.9933V7H52.4963V7.737Z" stroke="white" stroke-width="0.2" stroke-miterlimit="10"/>
<path d="M54.9753 13H55.7463V7.737H57.4223V7H53.2993V7.737H54.9753V13Z" stroke="white" stroke-width="0.2" stroke-miterlimit="10"/>
<path d="M60.4063 13V7H61.1773V13H60.4063Z" stroke="white" stroke-width="0.2" stroke-miterlimit="10"/>
<path d="M63.8243 13H64.5953V7.737H66.2713V7H62.1483V7.737H63.8243V13Z" stroke="white" stroke-width="0.2" stroke-miterlimit="10"/>
<path d="M76.0433 7V13H76.8123V9.262L76.7793 8.106H76.8123L79.8633 13H80.6683V7H79.8973V10.512L79.9303 11.668H79.8973L76.9813 7H76.0433Z" stroke="white" stroke-width="0.2" stroke-miterlimit="10"/>
<path d="M10.9033 7.53798C10.6123 7.84598 10.4403 8.32398 10.4403 8.94298V31.059C10.4403 31.679 10.6123 32.156 10.9033 32.464L10.9773 32.536L23.3663 20.147V20.001V19.855L10.9773 7.46498L10.9033 7.53798Z" fill="url(#paint0_linear_16:379)"/>
<path d="M27.4963 24.279L23.3673 20.148V20.002V19.856L27.4973 15.726L27.5903 15.779L32.4833 18.559C33.8813 19.353 33.8813 20.652 32.4833 21.447L27.5903 24.227L27.4963 24.279Z" fill="url(#paint1_linear_16:379)"/>
<path d="M27.5903 24.225L23.3673 20.001L10.9033 32.464C11.3643 32.952 12.1243 33.012 12.9813 32.525L27.5903 24.225Z" fill="url(#paint2_linear_16:379)"/>
<path d="M27.5903 15.777L12.9823 7.47699C12.1253 6.98999 11.3653 7.05099 10.9043 7.53799L23.3673 20.001L27.5903 15.777Z" fill="url(#paint3_linear_16:379)"/>
<path opacity="0.2" d="M27.4973 24.132L12.9823 32.379C12.1703 32.84 11.4443 32.81 10.9783 32.39L10.9033 32.465L10.9773 32.537C11.4433 32.957 12.1693 32.988 12.9813 32.526L27.5893 24.226L27.4973 24.132Z" fill="black"/>
<path opacity="0.12" d="M10.9033 32.318C10.6123 32.01 10.4403 31.532 10.4403 30.913V31.059C10.4403 31.678 10.6123 32.156 10.9033 32.464L10.9783 32.389L10.9033 32.318Z" fill="black"/>
<path opacity="0.12" d="M32.4833 21.299L27.4973 24.132L27.5903 24.225L32.4833 21.445C33.1823 21.048 33.5313 20.525 33.5313 20.002C33.4723 20.475 33.1163 20.939 32.4833 21.299Z" fill="black"/>
<path opacity="0.25" d="M12.9813 7.62299L32.4823 18.703C33.1163 19.063 33.4713 19.527 33.5303 20.001C33.5303 19.478 33.1813 18.954 32.4823 18.557L12.9813 7.47699C11.5833 6.68299 10.4403 7.34199 10.4403 8.94299V9.08999C10.4403 7.48899 11.5843 6.82899 12.9813 7.62299Z" fill="white"/>
</g>
<defs>
<linearGradient id="paint0_linear_16:379" x1="22.2679" y1="8.70978" x2="5.48551" y2="25.4922" gradientUnits="userSpaceOnUse">
<stop stop-color="#00A0FF"/>
<stop offset="0.0066" stop-color="#00A1FF"/>
<stop offset="0.2601" stop-color="#00BEFF"/>
<stop offset="0.5122" stop-color="#00D2FF"/>
<stop offset="0.7604" stop-color="#00DFFF"/>
<stop offset="1" stop-color="#00E3FF"/>
</linearGradient>
<linearGradient id="paint1_linear_16:379" x1="34.3026" y1="20.0015" x2="10.1057" y2="20.0015" gradientUnits="userSpaceOnUse">
<stop stop-color="#FFE000"/>
<stop offset="0.4087" stop-color="#FFBD00"/>
<stop offset="0.7754" stop-color="#FFA500"/>
<stop offset="1" stop-color="#FF9C00"/>
</linearGradient>
<linearGradient id="paint2_linear_16:379" x1="25.2952" y1="22.2962" x2="2.53692" y2="45.0545" gradientUnits="userSpaceOnUse">
<stop stop-color="#FF3A44"/>
<stop offset="1" stop-color="#C31162"/>
</linearGradient>
<linearGradient id="paint3_linear_16:379" x1="7.7655" y1="0.176287" x2="17.9281" y2="10.3388" gradientUnits="userSpaceOnUse">
<stop stop-color="#32A071"/>
<stop offset="0.0685" stop-color="#2DA771"/>
<stop offset="0.4762" stop-color="#15CF74"/>
<stop offset="0.8009" stop-color="#06E775"/>
<stop offset="1" stop-color="#00F076"/>
</linearGradient>
<clipPath id="clip0_16:379">
<rect width="135" height="40" fill="white" transform="translate(0.468323)"/>
</clipPath>
</defs>
</svg>

<svg width="136" height="40" fill="none" xmlns="http://www.w3.org/2000/svg"><g clip-path="url(#clip0_16:379)"><path fill-rule="evenodd" clip-rule="evenodd" d="M130.468 40H5.491C2.723 40 .468 37.746.468 35V5c0-2.756 2.255-5 5.023-5h124.977c2.766 0 5.023 2.244 5.023 5v30c0 2.746-2.257 5-5.023 5z" fill="#000"/><path fill-rule="evenodd" clip-rule="evenodd" d="M130.468.8c2.322 0 4.222 1.888 4.222 4.2v30c0 2.312-1.888 4.2-4.222 4.2H5.491c-2.322 0-4.222-1.888-4.222-4.2V5C1.269 2.688 3.157.8 5.49.8h124.977zm0-.8H5.491C2.723 0 .468 2.254.468 5v30c0 2.756 2.255 5 5.023 5h124.977c2.766 0 5.023-2.244 5.023-5V5c0-2.746-2.257-5-5.023-5z" fill="#A6A6A6"/><path d="M68.604 21.752c-2.352 0-4.269 1.788-4.269 4.253 0 2.449 1.917 4.253 4.27 4.253 2.351 0 4.268-1.804 4.268-4.253 0-2.465-1.917-4.253-4.269-4.253zm0 6.831c-1.289 0-2.4-1.063-2.4-2.578 0-1.531 1.111-2.578 2.4-2.578 1.29 0 2.4 1.047 2.4 2.578 0 1.514-1.11 2.578-2.4 2.578zm-9.314-6.831c-2.352 0-4.269 1.788-4.269 4.253 0 2.449 1.917 4.253 4.27 4.253 2.351 0 4.268-1.804 4.268-4.253.001-2.465-1.917-4.253-4.269-4.253zm0 6.831c-1.289 0-2.4-1.063-2.4-2.578 0-1.531 1.112-2.578 2.4-2.578 1.29 0 2.4 1.047 2.4 2.578.001 1.514-1.11 2.578-2.4 2.578zm-11.078-5.526v1.804h4.318c-.129 1.015-.467 1.756-.983 2.272-.628.628-1.61 1.321-3.335 1.321-2.658 0-4.736-2.143-4.736-4.801 0-2.658 2.078-4.801 4.736-4.801 1.434 0 2.481.564 3.254 1.289l1.273-1.273c-1.079-1.031-2.513-1.821-4.527-1.821-3.64 0-6.702 2.964-6.702 6.605 0 3.641 3.061 6.605 6.702 6.605 1.965 0 3.448-.644 4.608-1.853 1.192-1.192 1.563-2.868 1.563-4.221a5.84 5.84 0 00-.097-1.128h-6.074v.002zm45.308 1.401c-.354-.951-1.434-2.707-3.64-2.707-2.192 0-4.012 1.724-4.012 4.253 0 2.384 1.804 4.253 4.221 4.253 1.95 0 3.077-1.192 3.544-1.885l-1.45-.967c-.483.709-1.144 1.176-2.094 1.176s-1.627-.435-2.062-1.289l5.687-2.352-.194-.482zm-5.8 1.418c-.048-1.643 1.273-2.481 2.223-2.481.741 0 1.37.37 1.58.902l-3.803 1.579zM83.096 30h1.87V17.499h-1.87V30zm-3.06-7.298h-.065c-.419-.499-1.224-.951-2.239-.951-2.127 0-4.076 1.869-4.076 4.269 0 2.384 1.95 4.237 4.076 4.237 1.015 0 1.82-.451 2.24-.967h.063v.612c0 1.627-.87 2.497-2.272 2.497-1.144 0-1.853-.822-2.143-1.514l-1.627.677c.467 1.128 1.708 2.513 3.77 2.513 2.191 0 4.044-1.289 4.044-4.43v-7.636h-1.772v.693zm-2.143 5.881c-1.289 0-2.368-1.079-2.368-2.562 0-1.498 1.08-2.594 2.368-2.594 1.273 0 2.271 1.095 2.271 2.594 0 1.482-.998 2.562-2.27 2.562zm24.381-11.084h-4.47V30h1.864v-4.736h2.605c2.068 0 4.101-1.497 4.101-3.882s-2.032-3.883-4.1-3.883zm.048 6.025h-2.654v-4.285h2.654c1.395 0 2.187 1.155 2.187 2.143 0 .968-.792 2.142-2.187 2.142zm11.532-1.795c-1.351 0-2.75.595-3.329 1.914l1.657.692c.354-.692 1.013-.917 1.705-.917.965 0 1.946.579 1.962 1.608v.129c-.338-.193-1.062-.483-1.946-.483-1.785 0-3.603.981-3.603 2.815 0 1.673 1.464 2.75 3.104 2.75 1.255 0 1.946-.563 2.38-1.222h.064v.965h1.801v-4.793c0-2.22-1.656-3.458-3.795-3.458zm-.226 6.851c-.611 0-1.464-.306-1.464-1.061 0-.965 1.062-1.335 1.978-1.335.82 0 1.206.177 1.705.418a2.26 2.26 0 01-2.219 1.978zm10.583-6.578l-2.139 5.42h-.064l-2.219-5.42h-2.01l3.329 7.575-1.898 4.214h1.946l5.131-11.789h-2.076zM107.404 30h1.866V17.499h-1.866V30z" fill="#fff"/><path fill-rule="evenodd" clip-rule="evenodd" d="M74.077 12.224c-.59.607-1.323.909-2.2.909-.877 0-1.61-.303-2.199-.909-.59-.606-.884-1.348-.884-2.225s.294-1.619.884-2.225c.59-.607 1.322-.91 2.2-.91.871 0 1.603.305 2.195.914.592.609.888 1.349.888 2.221 0 .878-.295 1.62-.884 2.225zm-3.83-.502a2.2 2.2 0 001.63.674c.643 0 1.186-.225 1.63-.674.444-.45.667-1.024.667-1.722s-.223-1.273-.667-1.722a2.199 2.199 0 00-1.63-.674c-.643 0-1.186.225-1.63.674-.443.45-.666 1.024-.666 1.722s.223 1.272.666 1.722z" fill="#fff"/><path d="M47.886 10.243c0 .838-.248 1.505-.745 2.003-.564.592-1.3.888-2.204.888-.866 0-1.603-.3-2.208-.9-.606-.601-.909-1.345-.909-2.233 0-.889.303-1.633.91-2.233.604-.601 1.341-.901 2.207-.901.43 0 .841.084 1.231.251.391.168.704.391.938.67l-.527.528c-.397-.475-.944-.712-1.643-.712-.632 0-1.178.222-1.639.666-.46.444-.69 1.02-.69 1.73s.23 1.286.691 1.731a2.282 2.282 0 001.64.666c.67 0 1.228-.223 1.675-.67.29-.291.458-.696.503-1.215h-2.179V9.79h2.907c.03.157.042.308.042.453zM52.496 7.737h-2.732v1.902h2.464v.721h-2.464v1.902h2.732V13h-3.503V7h3.503v.737zM54.975 13h.771V7.737h1.676V7H53.3v.737h1.676V13zM60.406 13V7h.771v6h-.77zM63.824 13h.771V7.737h1.676V7h-4.123v.737h1.676V13zM76.043 7v6h.77V9.262l-.034-1.156h.033L79.863 13h.805V7h-.77v3.512l.032 1.156h-.033L76.981 7h-.938z" fill="#fff"/><path clip-rule="evenodd" d="M74.077 12.224c-.59.607-1.323.909-2.2.909-.877 0-1.61-.303-2.199-.909-.59-.606-.884-1.348-.884-2.225s.294-1.619.884-2.225c.59-.607 1.322-.91 2.2-.91.871 0 1.603.305 2.195.914.592.609.888 1.349.888 2.221 0 .878-.295 1.62-.884 2.225zm-3.83-.502a2.2 2.2 0 001.63.674c.643 0 1.186-.225 1.63-.674.444-.45.667-1.024.667-1.722s-.223-1.273-.667-1.722a2.199 2.199 0 00-1.63-.674c-.643 0-1.186.225-1.63.674-.443.45-.666 1.024-.666 1.722s.223 1.272.666 1.722z" stroke="#fff" stroke-width=".2" stroke-miterlimit="10"/><path d="M47.886 10.243c0 .838-.248 1.505-.745 2.003-.564.592-1.3.888-2.204.888-.866 0-1.603-.3-2.208-.9-.606-.601-.909-1.345-.909-2.233 0-.889.303-1.633.91-2.233.604-.601 1.341-.901 2.207-.901.43 0 .841.084 1.231.251.391.168.704.391.938.67l-.527.528c-.397-.475-.944-.712-1.643-.712-.632 0-1.178.222-1.639.666-.46.444-.69 1.02-.69 1.73s.23 1.286.691 1.731a2.282 2.282 0 001.64.666c.67 0 1.228-.223 1.675-.67.29-.291.458-.696.503-1.215h-2.179V9.79h2.907c.03.157.042.308.042.453zM52.496 7.737h-2.732v1.902h2.464v.721h-2.464v1.902h2.732V13h-3.503V7h3.503v.737zM54.975 13h.771V7.737h1.676V7H53.3v.737h1.676V13zM60.406 13V7h.771v6h-.77zM63.824 13h.771V7.737h1.676V7h-4.123v.737h1.676V13zM76.043 7v6h.77V9.262l-.034-1.156h.033L79.863 13h.805V7h-.77v3.512l.032 1.156h-.033L76.981 7h-.938z" stroke="#fff" stroke-width=".2" stroke-miterlimit="10"/><path d="M10.903 7.538c-.29.308-.463.786-.463 1.405v22.116c0 .62.172 1.097.463 1.405l.074.072 12.39-12.389v-.292l-12.39-12.39-.074.073z" fill="url(#paint0_linear_16:379)"/><path d="M27.496 24.279l-4.129-4.131v-.292l4.13-4.13.093.053 4.893 2.78c1.398.794 1.398 2.093 0 2.888l-4.893 2.78-.094.052z" fill="url(#paint1_linear_16:379)"/><path d="M27.59 24.225l-4.223-4.224-12.464 12.463c.461.488 1.221.548 2.078.061l14.61-8.3z" fill="url(#paint2_linear_16:379)"/><path d="M27.59 15.777l-14.608-8.3c-.857-.487-1.617-.426-2.078.061l12.463 12.463 4.223-4.224z" fill="url(#paint3_linear_16:379)"/><path opacity=".2" d="M27.497 24.132l-14.515 8.247c-.812.461-1.538.431-2.004.011l-.075.075.074.072c.466.42 1.192.451 2.004-.011l14.608-8.3-.092-.094z" fill="#000"/><path opacity=".12" d="M10.903 32.318c-.29-.308-.463-.786-.463-1.405v.146c0 .619.172 1.097.463 1.405l.075-.075-.075-.071zM32.483 21.299l-4.986 2.833.093.093 4.893-2.78c.7-.397 1.048-.92 1.048-1.443-.059.473-.415.937-1.048 1.297z" fill="#000"/><path opacity=".25" d="M12.981 7.623l19.501 11.08c.634.36.99.824 1.048 1.298 0-.523-.349-1.047-1.048-1.444l-19.5-11.08c-1.399-.794-2.542-.135-2.542 1.466v.147c0-1.601 1.144-2.261 2.541-1.467z" fill="#fff"/></g><defs><linearGradient id="paint0_linear_16:379" x1="22.268" y1="8.71" x2="5.486" y2="25.492" gradientUnits="userSpaceOnUse"><stop stop-color="#00A0FF"/><stop offset=".007" stop-color="#00A1FF"/><stop offset=".26" stop-color="#00BEFF"/><stop offset=".512" stop-color="#00D2FF"/><stop offset=".76" stop-color="#00DFFF"/><stop offset="1" stop-color="#00E3FF"/></linearGradient><linearGradient id="paint1_linear_16:379" x1="34.303" y1="20.002" x2="10.106" y2="20.002" gradientUnits="userSpaceOnUse"><stop stop-color="#FFE000"/><stop offset=".409" stop-color="#FFBD00"/><stop offset=".775" stop-color="orange"/><stop offset="1" stop-color="#FF9C00"/></linearGradient><linearGradient id="paint2_linear_16:379" x1="25.295" y1="22.296" x2="2.537" y2="45.054" gradientUnits="userSpaceOnUse"><stop stop-color="#FF3A44"/><stop offset="1" stop-color="#C31162"/></linearGradient><linearGradient id="paint3_linear_16:379" x1="7.766" y1=".176" x2="17.928" y2="10.339" gradientUnits="userSpaceOnUse"><stop stop-color="#32A071"/><stop offset=".069" stop-color="#2DA771"/><stop offset=".476" stop-color="#15CF74"/><stop offset=".801" stop-color="#06E775"/><stop offset="1" stop-color="#00F076"/></linearGradient><clipPath id="clip0_16:379"><path fill="#fff" transform="translate(.468)" d="M0 0h135v40H0z"/></clipPath></defs></svg>
